packages/opendesign/src/icons/svgs/fill/more.svg

<?xml version="1.0" encoding="UTF-8"?>
<svg width="24px" height="24px" viewBox="0 0 24 24" version="1.1" xmlns="http://www.w3.org/2000/svg" xmlns:xlink="http://www.w3.org/1999/xlink">
    <title>more</title>
    <g id="more" stroke="none" stroke-width="1" fill="none" fill-rule="evenodd">
        <path d="M8.53005181,12.8550885 C9.96599216,12.8550885 11.1300518,14.0191482 11.1300518,15.4550885 L11.1300518,15.4550885 L11.1300518,19.0235444 C11.1300518,20.4594847 9.96599216,21.6235444 8.53005181,21.6235444 L8.53005181,21.6235444 L4.94137632,21.6235444 C3.50543597,21.6235444 2.34137632,20.4594847 2.34137632,19.0235444 L2.34137632,19.0235444 L2.34137632,15.4550885 C2.34137632,14.0191482 3.50543597,12.8550885 4.94137632,12.8550885 L4.94137632,12.8550885 Z M19.2518497,12.8550885 C20.68779,12.8550885 21.8518497,14.0191482 21.8518497,15.4550885 L21.8518497,15.4550885 L21.8518497,19.0235444 C21.8518497,20.4594847 20.68779,21.6235444 19.2518497,21.6235444 L19.2518497,21.6235444 L15.6631742,21.6235444 C14.2272338,21.6235444 13.0631742,20.4594847 13.0631742,19.0235444 L13.0631742,19.0235444 L13.0631742,15.4550885 C13.0631742,14.0191482 14.2272338,12.8550885 15.6631742,12.8550885 L15.6631742,12.8550885 Z M8.53005181,14.0550885 L4.94137632,14.0550885 C4.16817767,14.0550885 3.54137632,14.6818899 3.54137632,15.4550885 L3.54137632,15.4550885 L3.54137632,19.0235444 C3.54137632,19.796743 4.16817767,20.4235444 4.94137632,20.4235444 L4.94137632,20.4235444 L8.53005181,20.4235444 C9.30325046,20.4235444 9.93005181,19.796743 9.93005181,19.0235444 L9.93005181,19.0235444 L9.93005181,15.4550885 C9.93005181,14.6818899 9.30325046,14.0550885 8.53005181,14.0550885 L8.53005181,14.0550885 Z M19.2518497,14.0550885 L15.6631742,14.0550885 C14.8899755,14.0550885 14.2631742,14.6818899 14.2631742,15.4550885 L14.2631742,15.4550885 L14.2631742,19.0235444 C14.2631742,19.796743 14.8899755,20.4235444 15.6631742,20.4235444 L15.6631742,20.4235444 L19.2518497,20.4235444 C20.0250483,20.4235444 20.6518497,19.796743 20.6518497,19.0235444 L20.6518497,19.0235444 L20.6518497,15.4550885 C20.6518497,14.6818899 20.0250483,14.0550885 19.2518497,14.0550885 L19.2518497,14.0550885 Z M8.53005181,2.37912566 C9.96599216,2.37912566 11.1300518,3.54318531 11.1300518,4.97912566 L11.1300518,4.97912566 L11.1300518,8.54758154 C11.1300518,9.98352189 9.96599216,11.1475815 8.53005181,11.1475815 L8.53005181,11.1475815 L4.94137632,11.1475815 C3.50543597,11.1475815 2.34137632,9.98352189 2.34137632,8.54758154 L2.34137632,8.54758154 L2.34137632,4.97912566 C2.34137632,3.54318531 3.50543597,2.37912566 4.94137632,2.37912566 L4.94137632,2.37912566 Z M19.2518497,2.37912566 C20.68779,2.37912566 21.8518497,3.54318531 21.8518497,4.97912566 L21.8518497,4.97912566 L21.8518497,8.54758154 C21.8518497,9.98352189 20.68779,11.1475815 19.2518497,11.1475815 L19.2518497,11.1475815 L15.6631742,11.1475815 C14.2272338,11.1475815 13.0631742,9.98352189 13.0631742,8.54758154 L13.0631742,8.54758154 L13.0631742,4.97912566 C13.0631742,3.54318531 14.2272338,2.37912566 15.6631742,2.37912566 L15.6631742,2.37912566 Z M8.53005181,3.57912566 L4.94137632,3.57912566 C4.16817767,3.57912566 3.54137632,4.20592701 3.54137632,4.97912566 L3.54137632,4.97912566 L3.54137632,8.54758154 C3.54137632,9.32078019 4.16817767,9.94758154 4.94137632,9.94758154 L4.94137632,9.94758154 L8.53005181,9.94758154 C9.30325046,9.94758154 9.93005181,9.32078019 9.93005181,8.54758154 L9.93005181,8.54758154 L9.93005181,4.97912566 C9.93005181,4.20592701 9.30325046,3.57912566 8.53005181,3.57912566 L8.53005181,3.57912566 Z M19.2518497,3.57912566 L15.6631742,3.57912566 C14.8899755,3.57912566 14.2631742,4.20592701 14.2631742,4.97912566 L14.2631742,4.97912566 L14.2631742,8.54758154 C14.2631742,9.32078019 14.8899755,9.94758154 15.6631742,9.94758154 L15.6631742,9.94758154 L19.2518497,9.94758154 C20.0250483,9.94758154 20.6518497,9.32078019 20.6518497,8.54758154 L20.6518497,8.54758154 L20.6518497,4.97912566 C20.6518497,4.20592701 20.0250483,3.57912566 19.2518497,3.57912566 L19.2518497,3.57912566 Z" id="path1" fill="#000000" fill-rule="nonzero"></path>
    </g>
</svg>

<!-- Generated by IcoMoon.io -->
<svg version="1.1" xmlns="http://www.w3.org/2000/svg" width="24" height="24" viewBox="0 0 24 24">
<title>more</title>
<path d="M8.53 12.855c1.436 0 2.6 1.164 2.6 2.6v0 3.568c0 1.436-1.164 2.6-2.6 2.6v0h-3.589c-1.436 0-2.6-1.164-2.6-2.6v0-3.568c0-1.436 1.164-2.6 2.6-2.6v0zM19.252 12.855c1.436 0 2.6 1.164 2.6 2.6v0 3.568c0 1.436-1.164 2.6-2.6 2.6v0h-3.589c-1.436 0-2.6-1.164-2.6-2.6v0-3.568c0-1.436 1.164-2.6 2.6-2.6v0zM8.53 14.055h-3.589c-0.773 0-1.4 0.627-1.4 1.4v0 3.568c0 0.773 0.627 1.4 1.4 1.4v0h3.589c0.773 0 1.4-0.627 1.4-1.4v0-3.568c0-0.773-0.627-1.4-1.4-1.4v0zM19.252 14.055h-3.589c-0.773 0-1.4 0.627-1.4 1.4v0 3.568c0 0.773 0.627 1.4 1.4 1.4v0h3.589c0.773 0 1.4-0.627 1.4-1.4v0-3.568c0-0.773-0.627-1.4-1.4-1.4v0zM8.53 2.379c1.436 0 2.6 1.164 2.6 2.6v0 3.568c0 1.436-1.164 2.6-2.6 2.6v0h-3.589c-1.436 0-2.6-1.164-2.6-2.6v0-3.568c0-1.436 1.164-2.6 2.6-2.6v0zM19.252 2.379c1.436 0 2.6 1.164 2.6 2.6v0 3.568c0 1.436-1.164 2.6-2.6 2.6v0h-3.589c-1.436 0-2.6-1.164-2.6-2.6v0-3.568c0-1.436 1.164-2.6 2.6-2.6v0zM8.53 3.579h-3.589c-0.773 0-1.4 0.627-1.4 1.4v0 3.568c0 0.773 0.627 1.4 1.4 1.4v0h3.589c0.773 0 1.4-0.627 1.4-1.4v0-3.568c0-0.773-0.627-1.4-1.4-1.4v0zM19.252 3.579h-3.589c-0.773 0-1.4 0.627-1.4 1.4v0 3.568c0 0.773 0.627 1.4 1.4 1.4v0h3.589c0.773 0 1.4-0.627 1.4-1.4v0-3.568c0-0.773-0.627-1.4-1.4-1.4v0z"></path>
</svg>
